X:1
N: The Vale of Atholl
N: 8 x 32J 3C (Evelyn Murray/New Atholl Collection)
P: The Duke of Atholl's Jig [64 bars = 2 rounds]
C: Ron Gonnella, arr. T. Traub 5-4-06
R: jig
M: 6/8
K: D
L: 1/8
|: A|"D"d2 d "A"efg|"D"a2 a fed|"A"gfe "D"fdA|"A"e3-e2 A|"D"d2 d "A"efg|"D"a2 a fed|"A"e3 cAc|"D"d3-d2 :|
d|"A"cAA Ace|"D"fAA Adf|"G"gag "D"fed|"A"e3-e2 d|"A"cAA Ace|"D"fAA Adf|"Em"g2 e "A"cAc|"D"d3-d2 d||
d|"A"cAA Ace|"D"fAA Adf|"G"gag "D"fed|"A"e3-e2 A|"D"dcd "A"efg|"D"a2 a fed|"Em"e3 "A"cAc |"D"d3-d2||
|: c|"Bm"B2 B Bde|f2 f fed|fed dcB|"F#m"c3-c2 A|"Bm"B2 B Bde|f2 f fed "Em"fed "A"cAc|"Bm"B3-B2 :|
c|"Bm"dBB fBB|dBB fBB|"Bm"f^ga "E"fed|"A"e3-e2 c|"Bm"dBB fBB |dBB fBB|"Em"fed "A"cAc|"Bm"B3-B2 c||
"Bm"dBB fBB dBB fBB|"D"f^ga "E"fed|"A"e3-e2 A|"D"dcd "A"efg|"F#m"a2 a "Bm"fed|"Em"e3 "A"cAc|"D"d3-d2 |]
